static/Icons/category-3.svg

<svg width="24" height="24" viewBox="0 0 24 24" fill="none" xmlns="http://www.w3.org/2000/svg">
<path d="M7.24 2H5.34C3.15 2 2 3.15 2 5.33V7.23C2 9.41 3.15 10.56 5.33 10.56H7.23C9.41 10.56 10.56 9.41 10.56 7.23V5.33C10.57 3.15 9.42 2 7.24 2Z" fill="#292D32"/>
<path opacity="0.4" d="M18.6695 2H16.7695C14.5895 2 13.4395 3.15 13.4395 5.33V7.23C13.4395 9.41 14.5895 10.56 16.7695 10.56H18.6695C20.8495 10.56 21.9995 9.41 21.9995 7.23V5.33C21.9995 3.15 20.8495 2 18.6695 2Z" fill="#292D32"/>
<path d="M18.6695 13.4302H16.7695C14.5895 13.4302 13.4395 14.5802 13.4395 16.7602V18.6602C13.4395 20.8402 14.5895 21.9902 16.7695 21.9902H18.6695C20.8495 21.9902 21.9995 20.8402 21.9995 18.6602V16.7602C21.9995 14.5802 20.8495 13.4302 18.6695 13.4302Z" fill="#292D32"/>
<path opacity="0.4" d="M7.24 13.4302H5.34C3.15 13.4302 2 14.5802 2 16.7602V18.6602C2 20.8502 3.15 22.0002 5.33 22.0002H7.23C9.41 22.0002 10.56 20.8502 10.56 18.6702V16.7702C10.57 14.5802 9.42 13.4302 7.24 13.4302Z" fill="#292D32"/>
</svg>

<svg fill="none" height="24" viewBox="0 0 24 24" width="24" xmlns="http://www.w3.org/2000/svg"><g fill="#292d32"><path d="m7.24 2h-1.9c-2.19 0-3.34 1.15-3.34 3.33v1.9c0 2.18 1.15 3.33 3.33 3.33h1.9c2.18 0 3.33-1.15 3.33-3.33v-1.9c.01-2.18-1.14-3.33-3.32-3.33z"/><path d="m18.6695 2h-1.9c-2.18 0-3.33 1.15-3.33 3.33v1.9c0 2.18 1.15 3.33 3.33 3.33h1.9c2.18 0 3.33-1.15 3.33-3.33v-1.9c0-2.18-1.15-3.33-3.33-3.33z" opacity=".4"/><path d="m18.6695 13.4302h-1.9c-2.18 0-3.33 1.15-3.33 3.33v1.9c0 2.18 1.15 3.33 3.33 3.33h1.9c2.18 0 3.33-1.15 3.33-3.33v-1.9c0-2.18-1.15-3.33-3.33-3.33z"/><path d="m7.24 13.4302h-1.9c-2.19 0-3.34 1.15-3.34 3.33v1.9c0 2.19 1.15 3.34 3.33 3.34h1.9c2.18 0 3.33-1.15 3.33-3.33v-1.9c.01-2.19-1.14-3.34-3.32-3.34z" opacity=".4"/></g></svg>
